!!!OTL: Vergebliche Warnung (80a), S. 218
!!!id: T0232
**kern
*clefG2
*k[]
*G:
{8d
=1
8g
8g
8g
8g
=2
8g
8a
8b
8g
=3
8a
8a
8a
8a
=4
4a}
8r
=5
{8d
=6
8a
8a
8a
8a
=7
8a
8b
8cc
8a
=8
8b
8b
8b
8b
=9
4b}
4r
=10
{4.dd
8cc
=11
8b
8dd
8dd
8dd
=12
4dd
8r
8dd
=13
8dd
8dd
8ee
8dd
=14
8dd
8cc
8cc}
=15
{8b
=16
8a
8a
8b
8dd
=17
4dd
8cc
8b
=18
4b}
8r
==
*-
!!!minrhy: 8
!!!meters: 2/4 ]  ZZ[4
!!!cut1: Vergebliche Warnung (80a), S. 218
!!!cut2: 2. Melodie
!!!reg: Luxemburg
!!!trd: Singendes Volk, Esch-Alzette 1937 posth.
!!!rhy1: X  XXXX  XXXX  XXXX  X_0
!!!rhy2: X  XXXX  XXXX  XXXX  X_0_
!!!key: T0232  08  G 2/4 ]  ZZ[4
!!!mod: SECHSTONSKALA DUR ?]  AMBITUS[9
!!!kad: 2343
!!!akz: 1122_2233_53555_253_
!!!fot: 'a__as'b__c__
!!!for: 'a__av_b__c__
!!!fok: '/__/__Sd_^__
!! PHRAS[VORWIEGEND AUFTAKTIG]
!!!fkt: Liebeslieder
!!!bem: Rosport, fff Maria Schiltz, 8.3.1934
!! THILL, Mathias:
!! PR[24] 2K[3] 2G[9] 3K[9] 3G[6] 4A[12] 4Ü[0] 5A[0] 6K[0] 6G[0]
!! 7K[0] 7G[0] 8A[0] MEHR[0] SI[38] ABS[34] SR[12] SP[26]
!! ST[8] 2k[6] 2g[12] 3k[6] 3g[3] 4d[12] 4ü[0] 5d[0] 6k[0] 6g[0]
!! 7k[0] 7g[0] 8d[0] mehr[0] si[38] dm[0] sr[18] sp[21]
!! 1F[82] 2F[13] 3F[0] 4F[0] LF[0] 2P[5] 3P[0] 4P[0] TRI[0] DF[3] AB[39]
!! TF[0] U3K[0] U3[0] U4[0] U4Ü[0] U5[6] U6K[0] U6[0] U7K[0] U7[0]
!! N1[17] N2K[0] N2[11] N3K[0] N3[26] N4[9] N4Ü[0] N5[20] N6K[0] N6[9]
!!!n7k: 0] N7[0] O1[3] O2K[0] O2[0] O3K[0] O3[0] HÖ[0
